X: 15011
T: My Mother's Coming In
T: 8x32R__
B: RSCDS 15-1
O: RSCDS 15-1
%--------------------
K:
P: My Mother's Coming In
R: reel
Z: John Chambers <jc:trillian.mit.edu>
M: C|
L: 1/8
K: D
|: f \
| "D"d2 AB/c/ dAFD | "Em"GEed "A"cAA=c | "G"B2GB "D"AdFA | "Em"GE"A7"AG "D"FDD :|
g \
| "D"f2df "A"eace | "Bm"dBed "A"cAA=c | "G"B2GB "D"AdFA | "Em"GB"A7"AG "D"FDD ||
g \
| "D"fefd "A"eace | "Bm"dBed "A"cAA=c | "G"BABG "D"FGA=c | "G"BG"A7"ge "D"fdd |]
P: Mrs. Anderson's Reel
C: Robert Mackintosh
R: reel
B: RSCDS 27-7
Z: 1997 by John Chambers <jc:trillian.mit.edu>
M: C|
L: 1/8
K: G
d | "G"g2dc     BGdB | "Am"cBAG "D7"FDDf | "G"g2dc     BGdB | "Am"ce"D7"dc "G"BGG :|
c | "G"BGdB "Am"cAec |  "G"BgdB "D7"cAAc | "G"BGdB "Am"cAec | "D7"BdAc     "G"BGG ||
c | "G"BGdB "Am"cAec |  "G"BgdB "D7"cAAc | "G"Bdgb "Am"ceag | "D7"fdef     "G"gGG |]
P: The Nine Pint Coggie
R: Reel
A: Cape Breton
S: Sandy MacIntyre
M: C
L: 1/8
K: Em
F | "Em"~E2EF E2DB | "D"AFED       FAAd  |  "G"BdAB "D"defe | "(Bm)"dD~D2 "Em" FEE :|
F | "Em"Eeef  e2de | "D"f2ed "(Bm)"Bdde  | "Em"Beef    edef |  "D"   afed "Em"~e2e ||
f |  "D"abaf  defe | "D"dBAF       ABde  |  "D"faef    deBe |       dD~D2 "Em" FEE |]
P: Deil Stick da Minister
R:reel
M: C|
L:1/8
Z: John Chambers <jc:trillian.mit.edu>
K:A
|: "A"EAcA "E7"~B2GB | "A"cAcA "D"~d2Bd | "A"cAcA "E7"~B2GB | "D"~A2BA "E7"GEE2 :|
|: "A"cdec      dedc | "G"B=GdG    BGdG | "A"cdec "E7"dBGB  | "D"~A2BA "E7"GEE2 :|
%%center Book15/15011-My_Mothers_Coming_In.abc

%%sep 1 1 500
%%sep 1 1 500

